avogadro/qtplugins/autoopt/autoopt.svg

<?xml version="1.0" encoding="UTF-8" standalone="no"?>
<!-- Created with Inkscape (http://www.inkscape.org/) -->
<svg xmlns:inkscape="http://www.inkscape.org/namespaces/inkscape" xmlns:sodipodi="http://sodipodi.sourceforge.net/DTD/sodipodi-0.dtd" xmlns="http://www.w3.org/2000/svg" xmlns:svg="http://www.w3.org/2000/svg" version="1.1" id="svg1" width="200" height="200" viewBox="0 0 200 200.00001" sodipodi:docname="opt1.svg" inkscape:version="1.4.2 (ebf0e940d0, 2025-05-08)">
  <defs id="defs1"/>

  <g id="g1" inkscape:groupmode="layer" inkscape:label="1" transform="translate(-4.0000643,-0.08331103)">
    <path style="fill:#67d867;fill-opacity:1;stroke:#000000;stroke-width:5;stroke-dasharray:none" d="m 84.201349,110.23592 h 39.597431 v 19.79871 h 46.19699 l -65.99571,65.9957 -65.995704,-65.9957 h 46.196993 z" id="path1"/>
    <path id="path2" d="M 136.55685,64.380999 H 85.715712 V 91.292721 H 143.65758 V 110.10962 H 64.342545 V 5.4450252 H 141.10131 V 23.977906 H 85.715712 v 22.225255 h 50.841138 z" style="fill:#ffffff;fill-opacity:1;fill-rule:nonzero;stroke:#000000;stroke-width:5;stroke-dasharray:none;stroke-opacity:1"/>
  </g>
</svg>

<svg height="200" viewBox="0 0 200 200" width="200" xmlns="http://www.w3.org/2000/svg"><g stroke="#000" stroke-width="5" transform="translate(-4 -.083)"><path d="m84.201 110.236h39.597v19.799h46.197l-65.996 65.996-65.996-65.996h46.197z" fill="#67d867"/><path d="m136.557 64.381h-50.841v26.912h57.942v18.817h-79.315v-104.665h76.758v18.533h-55.385v22.225h50.841z" fill="#fff"/></g></svg>
